X:1
T:South Cerney, 88.88.88
T:South Cerney, 88.88.88
T:William Henry Hadow, 1906
T:Public Domain Courtesy of the Cyber Hymnal™
C:William Henry Hadow, 1906
Z:Public Domain
Z:Courtesy of the Cyber Hymnal™
%%score ( 1 2 ) ( 3 4 )
L:1/8
Q:1/4=107
M:none
K:Eb
V:1 treble 
V:2 treble 
V:3 bass 
V:4 bass 
V:1
 (G[FA]) | B2 [EB]2 A2 [EG]2 | [EF]2 [DF]2 [EG]2 [EG]2 | F2 z B3 z c x2 | %4
 d2 z !fermata![DB]2 [DB]2 x | [EB]2 [FB]2 [EA]2 [EG]2 | [EF]2 [DF]2 [EG]2 B2 | e2 d2 d3 z c | %8
 B2 z !fermata![B,G]2 [EG]2 x | [FA]2 (GF) E2 ([Ee][Fd]) | [Gc]2 c2 [DB]2 [Fd]2 | %11
 [Ee]2 (dc) B2 [Ec]2 | [EF]2 [DF]2 !fermata!E2 |] %13
V:2
 G x | ED x C D x3 | x8 | F3 (B2 D)GF G2 | F3 (c2 E) x2 | x8 | x6 (GF) | (EG) (^F=A) (GD) E2 x | %8
 D3 (=A2 C) x2 | x2 D2 E2 x2 | x2 (FE) x4 | x2 F2 GF x2 | x4 E2 |] %13
V:3
 (B,A,) | ([E,G,][F,A,]) ([G,B,][E,G,]) [F,A,]2 [G,B,]2 | [A,C]2 B,2 [E,B,]2 [E,B,]2 | %3
 B,2 z B,2 B,2 x3 | [F,B,]2 [F,=A,]2 !fermata![B,,B,]2 (B,_A,) | (G,A,) (F,G,) [C,A,]2 [B,,B,]2 | %6
 [A,,C]2 [B,,B,]2 [E,B,]2 B,2 | (CB,) (=A,C) B,3 z A, | %8
 [D,G,]2 [D,^F,]2 !fermata![G,,G,]2 [C,G,]2 | [F,,C]2 (B,A,) ([E,G,][F,A,]) B,2 | %10
 [E,B,]2 [F,=A,]2 [B,,B,]2 [=B,,G,]2 | (G,C) (B,A,) [E,G,]2 (A,G,) | %12
 (F,G,) [B,,A,]2 !fermata![E,G,]2 |] %13
V:4
 E,2 | x8 | x2 B,2 x4 | D,3 (B,2 B,,) (E,D,) (E,=E,) | x6 B,,2 | E,2 D,2 x4 | x6 (E,D,) | %7
 C,2 D,2 G,2 C,2 x | x8 | x2 B,,2 x (G,F,) x | x8 | C,2 D,2 x A,,2 x | B,,2 x4 |] %13

